src/actions/24/office-chart-area.svg

<svg viewBox="0 0 24 24" xmlns="http://www.w3.org/2000/svg">
 <defs>
  <style type="text/css">.ColorScheme-Text {
        color:#2e3440;
      }</style>
 </defs>
 <path class="ColorScheme-Text" d="m5 4v6 1 5 1 1h-1v1h1v1h1v-1h13.293 0.70703v-0.70703-0.29297h-0.29297l-3.5762-3.5762-0.003906 0.003906-0.005859-0.003906-2.123 2.123-4.123-4.123h-0.0019531-1.873-1-1v-0.42383-1h1 1 1.873 0.0019531l4.123-4.123 2.123 2.123 0.005859-0.0039062 0.003906 0.0039062 3.8691-3.8691-0.70703-0.70703-3.166 3.166-2.127-2.125-0.001953 0.0019531-0.001953-0.0019531-1.5273 1.5273h-6.4688v-0.99219-2h-1zm1 3h6.4609l-3 3h-1.4609-1-1v-3zm0 6.4238h1 1 1.4609l3 3h-6.4609v-0.42383-2.5762zm10.127 2.4102 2.166 2.166h-12.293v-1-0.56836h6.4688l1.5273 1.5273 0.001953-0.001953 0.001953 0.001953 2.127-2.125z" fill="currentColor"/>
 <path class="ColorScheme-Text" d="m19.934 5.0645 0.066406 0.066406v-0.0039063l-0.066406-0.0625zm0.066406 0.066406-3.8691 3.8691-0.003906-0.0039062-0.005859 0.0039062-2.123-2.123-4.123 4.123h-0.0019531-1.873-1-1v1 0.42383h1 1 1.873 0.0019531l4.123 4.123 2.123-2.123 0.005859 0.003906 0.003906-0.003906 3.5762 3.5762h0.29297v-12.869zm-14 8.293v2.5762 0.42383h6.4609l-3-3h-1.4609-1-1zm10.127 2.4102-2.127 2.125-0.001953-0.001953-0.001953 0.001953-1.5273-1.5273h-6.4688v1.5684h5l2-0.007812 0.007812 0.007812h0.00586l1.9922-0.007812 3.2852 0.005859-2.1641-2.1641z" fill="currentColor" fill-opacity=".5"/>
</svg>

<svg xmlns="http://www.w3.org/2000/svg" viewBox="0 0 24 24">
  <defs id="defs3051">
    <style type="text/css" id="current-color-scheme">
      .ColorScheme-Text {
        color:#2e3440;
      }
      </style>
  </defs>
 <path 
     style="fill:currentColor;fill-opacity:1;stroke:none" 
     d="M 5 4 L 5 10 L 5 11 L 5 16 L 5 17 L 5 18 L 4 18 L 4 19 L 5 19 L 5 20 L 6 20 L 6 19 L 19.292969 19 L 20 19 L 20 18.292969 L 20 18 L 19.707031 18 L 18.958984 17.251953 L 18.130859 16.423828 L 16.130859 14.423828 L 16.126953 14.427734 L 16.121094 14.423828 L 13.998047 16.546875 L 12.703125 15.251953 L 11.875 14.423828 L 9.875 12.423828 L 9.8730469 12.423828 L 8 12.423828 L 7 12.423828 L 6 12.423828 L 6 12 L 6 11 L 7 11 L 8 11 L 9.8730469 11 L 9.875 11 L 11.875 9 L 12.703125 8.171875 L 13.998047 6.8769531 L 16.121094 9 L 16.126953 8.9960938 L 16.130859 9 L 18.130859 7 L 18.958984 6.171875 L 20 5.1308594 L 19.292969 4.4238281 L 18.251953 5.4648438 L 17.423828 6.2929688 L 16.126953 7.5898438 L 14 5.4648438 L 13.998047 5.4667969 L 13.996094 5.4648438 L 12.46875 6.9921875 L 6 6.9921875 L 6 6 L 6 4 L 5 4 z M 6 7 L 12.460938 7 L 11.996094 7.4648438 L 11.167969 8.2929688 L 9.4609375 10 L 8 10 L 7 10 L 6 10 L 6 7 z M 6 13.423828 L 7 13.423828 L 8 13.423828 L 9.4609375 13.423828 L 11.167969 15.130859 L 11.996094 15.958984 L 12.460938 16.423828 L 6 16.423828 L 6 16 L 6 13.423828 z M 16.126953 15.833984 L 17.423828 17.130859 L 18.251953 17.958984 L 18.292969 18 L 6 18 L 6 17 L 6 16.431641 L 12.46875 16.431641 L 13.996094 17.958984 L 13.998047 17.957031 L 14 17.958984 L 16.126953 15.833984 z "
     class="ColorScheme-Text"
     />
 <path 
     style="fill:currentColor;fill-opacity:0.5;stroke:none" 
     d="M 19.933594 5.0644531 L 20 5.1308594 L 20 5.1269531 L 19.933594 5.0644531 z M 20 5.1308594 L 18.958984 6.171875 L 18.130859 7 L 16.130859 9 L 16.126953 8.9960938 L 16.121094 9 L 13.998047 6.8769531 L 12.703125 8.171875 L 11.875 9 L 9.875 11 L 9.8730469 11 L 8 11 L 7 11 L 6 11 L 6 12 L 6 12.423828 L 7 12.423828 L 8 12.423828 L 9.8730469 12.423828 L 9.875 12.423828 L 11.875 14.423828 L 12.703125 15.251953 L 13.998047 16.546875 L 16.121094 14.423828 L 16.126953 14.427734 L 16.130859 14.423828 L 18.130859 16.423828 L 18.958984 17.251953 L 19.707031 18 L 20 18 L 20 5.1308594 z M 6 13.423828 L 6 16 L 6 16.423828 L 12.460938 16.423828 L 11.996094 15.958984 L 11.167969 15.130859 L 9.4609375 13.423828 L 8 13.423828 L 7 13.423828 L 6 13.423828 z M 16.126953 15.833984 L 14 17.958984 L 13.998047 17.957031 L 13.996094 17.958984 L 12.46875 16.431641 L 6 16.431641 L 6 18 L 11 18 L 13 17.992188 L 13.007812 18 L 13.013672 18 L 15.005859 17.992188 L 18.291016 17.998047 L 18.251953 17.958984 L 17.423828 17.130859 L 16.126953 15.833984 z "
     class="ColorScheme-Text"
     />
</svg>
